tools/download-figma-icons/icons/solid/smartphone-with-touch.svg

<svg width="24" height="24" viewBox="0 0 24 24" fill="none" xmlns="http://www.w3.org/2000/svg">
<path fill-rule="evenodd" clip-rule="evenodd" d="M13.3282 22.5H4.84425C4.24125 22.5 3.75 22.0095 3.75 21.4058V2.59425C3.75 1.9905 4.24125 1.5 4.84425 1.5H5.34375C5.35125 2.10525 5.8425 2.59425 6.45 2.59425H11.6137C12.2205 2.59425 12.7125 2.10525 12.7192 1.5H13.3282C13.932 1.5 14.4225 1.9905 14.4225 2.59425V8.45475C14.3122 8.47725 14.2035 8.508 14.0977 8.5605C13.4513 8.88075 13.188 9.66075 13.5075 10.3073C13.3477 9.98475 13.071 9.7575 12.756 9.651C12.4365 9.54375 12.084 9.55725 11.7607 9.71775C11.1143 10.038 10.851 10.818 11.1713 11.4645L8.577 6.22575C8.41725 5.9025 8.1405 5.676 7.8255 5.57025C7.48425 5.45775 7.101 5.478 6.75975 5.673C6.15075 6.02175 5.96025 6.81675 6.2715 7.446L9.858 14.6895L7.79625 13.734C7.42575 13.5638 7.01325 13.5832 6.67425 13.7512C6.41325 13.8802 6.19875 14.0933 6.0675 14.3768C5.7675 15.0345 6.0585 15.807 6.71025 16.1055L12.9128 19.518C13.392 19.788 13.8975 20.0085 14.4225 20.166V21.4058C14.4225 22.0095 13.932 22.5 13.3282 22.5ZM20.5313 12.7388C20.4293 12.474 18.1815 7.9935 18.1815 7.9935C18.0218 7.67025 17.745 7.44375 17.43 7.33725C17.1098 7.22925 16.758 7.2435 16.4348 7.40325C16.2165 7.512 16.0463 7.67475 15.9225 7.86525V2.59425C15.9225 1.164 14.7585 0 13.3283 0H4.84425C3.414 0 2.25 1.164 2.25 2.59425V21.4058C2.25 22.836 3.414 24 4.84425 24H13.3283C14.7585 24 15.9225 22.836 15.9225 21.4058V20.4233C17.0768 20.4855 18.369 20.226 19.5128 19.1182C21.657 17.0415 21.045 14.0505 20.5313 12.7388Z" fill="black"/>
</svg>

<svg xmlns="http://www.w3.org/2000/svg" width="24" height="24" fill="none" viewBox="0 0 24 24"><path fill="currentColor" fill-rule="evenodd" d="M13.328 22.5H4.844c-.603 0-1.094-.49-1.094-1.094V2.594c0-.603.491-1.094 1.094-1.094h.5A1.107 1.107 0 0 0 6.45 2.594h5.164c.606 0 1.098-.489 1.105-1.094h.61c.603 0 1.093.49 1.093 1.094v5.86c-.11.023-.219.054-.324.106-.647.32-.91 1.1-.59 1.747a1.3 1.3 0 0 0-1.747-.59 1.3 1.3 0 0 0-.59 1.747L8.577 6.226a1.305 1.305 0 0 0-1.817-.553c-.61.349-.8 1.144-.489 1.773l3.587 7.244-2.062-.956a1.303 1.303 0 0 0-1.729.643c-.3.657-.008 1.43.643 1.728l6.203 3.413c.479.27.985.49 1.51.648v1.24c0 .604-.491 1.094-1.095 1.094m7.203-9.761c-.102-.265-2.35-4.746-2.35-4.746a1.3 1.3 0 0 0-.751-.656 1.29 1.29 0 0 0-1.508.528v-5.27A2.597 2.597 0 0 0 13.329 0H4.844A2.597 2.597 0 0 0 2.25 2.594v18.812A2.597 2.597 0 0 0 4.844 24h8.484a2.597 2.597 0 0 0 2.595-2.594v-.983c1.154.063 2.446-.197 3.59-1.305 2.144-2.076 1.532-5.067 1.018-6.38" clip-rule="evenodd"/></svg>
